X:1
T:Nimrod
T:Nimrod
T:Simplified
T:Edward Elgar
C:Edward Elgar
%%score { ( 1 3 5 ) | ( 2 4 6 ) }
L:1/8
Q:1/4=71
M:3/4
K:Eb
V:1 treble nm="Piano" snm="Pno."
V:3 treble 
V:5 treble 
V:2 bass 
V:4 bass 
V:6 bass 
V:1
!pp!"^Adagio" G6- |"_nobilmente" (GE [EA]2 [A,F]2 | [EB]2 [EF]2) (D2 |!<(! GB!<)!!mp! [Ge]2 F2 | %4
 z2 E2)"_cresc." (FA) | (GB!mf! [Bg]2 =A2 | z2 G2)!<(! (=Ac)!<)! |!>(! (ec =A3!>)!!pp! B | %8
 BG F3 A) |!<(! (GE [EA]2 [A,F]2!<)! |!p! [EB]2 [EF]2) (D2 |!<(! GB!<)!!mp! [Ge]2 F2 | z2 E2) (FA | %13
"_cresc." GB [Bg]2 A2 | z2 G2) (Ac |!mf! [Ad]f [cc']2 [cd]2 | [eb]2 [Bc]2) ([Ad]f) | %17
 ([ca]c [FAB]2) ([Gc]e) | ([Bg]B [EGA]2)"_dim." ([FB]d) | ([Af]A G3 F) |!pp!!<(! (B4- Bc-!<)! | %21
!p!!>(! c4 d2)!>)! |!pp!!<(! (B4- Bc!<)! |!p!!>(! f4 B2)!>)! |!pp!"_cresc." (B,2- [B,B]2 [CEc]2) | %25
 ([Ae]3 [FAd] [FAc]2) | ([FAB]2 [FAc]3 [FAd]) |!f! ([fc']3 [fb] [da]2) | %28
!ff!"_siempre legato" ([Beg][GBe] [ea]2 [Aef]2 | [eb]2 [Bef]2) ([Adf][da] | [eg]b [ge']2 [ef]2 | %31
 [fd']2 [de]2) (FA | GB [Bg]2 A2 | z2 G2) (Ac | [Ad]f [fc']2 [cd]2 | [eb]2 [Bc]2) ([Ad]f) | %36
 ([ca]c [FAB]2)"_cresc." ([Ad]f) | ([ca]c [FAB]2) [Ad]f | %38
"^rit."!fff![Q:1/4=45] (3!>![_ca]!>![Ee]3/2[Q:1/4=42][_Cc]/ [B,B]3 [B,B] |!<(! B6[Q:1/4=40]!<)! | %40
!ffff!"_largamente" [Beg][GBe]!>(! ([ea]2 [ef]2)!>)! |!pp! ([eb]2 f3[Q:1/4=35][Q:1/4=30] a) | %42
"_dim." !fermata![Beg]6- | [Beg]2 !fermata!z4 |] %44
V:2
 z6 |!ped! z4!ped-up!!ped! [C,,E,,]2!ped-up! |!ped! G,,2!ped-up!!ped! B,,2 B,,2!ped-up! | %3
!ped! [B,,E,]2!ped-up!!ped! C,4!ped-up! |!ped! B,,4 B,,2!ped-up! |"_simile" E,2 E,4 | D,4 C,2- | %7
 C,4 C,2- | C,4 B,,2 | z4!ped! [C,,E,,]2!ped-up! | G,,2 B,,2 B,,2 | [B,,E,]2 C,4 | B,,4 B,,2 | %13
 E,2 E,4 | D,4 C,2 | [B,,F,]2 [A,,F,]4 | [G,,E,]2 [_G,,E,]2 [F,,B,,]2 | %17
 [E,,C,]2 [D,,D,]2 [E,,C,]2 | [D,,D,]2 [C,,C,]2 [D,,B,,]2 | [C,,C,]2 B,,4 | %20
!ped! (G,2"_poco marcato" G2)!ped-up! [FA][EG] | ([DF][F,A,] [B,D]2 CB,) | %22
!ped! [G,B,]B,, ([B,G]2!ped-up! [A,F][G,E] | [F,D][C,A,] [E,C]2 [D,B,][C,A,]) | ([B,,G,]4 A,G,) | %25
 (F,C,) E,4 | D,4 (C,B,,) | (A,,E,,) D,,2 B,,,2 |!ped! [E,,B,,]2!ped-up!!ped! [C,,A,,]4!ped-up! | %29
 G,,2 B,,2 [B,,F,]2 | [E,B,]2 C,4 | B,,4 B,,2 | E,2 E,4 | D,4 [C,A,]2 | [B,,F,]2 [A,,F,]4 | %35
 [G,,E,]2 [_G,,E,]2 [F,,B,,]2 | [E,,C,]2 [D,,D,]2 [F,,B,,]2 | [E,,C,]2 [D,,D,]2 [F,,B,,]2 | %38
 [E,,_C,]2 [D,F,]2 [=C,E,]2 |!ped! !///-!B,,,3 B,,3!ped-up! | %40
!ped! [E,,B,,]2!ped-up!!ped! [C,,A,,]4!ped-up! | [G,,E,]2 B,2 B,,2 | !fermata![E,,B,,]6- | %43
 [E,,B,,]2 !fermata!z4 |] %44
V:3
 x6 | B,2 x4 | z4 FA | E2 z4 | D4 D2 | E2 z4 | F4 E2 | E6 | E4 D2 | B,2 x4 | z4 FA | E2 z4 | %12
 D4 D2 | E2 z4 | F4 E2 | x6 | x6 | x6 | x6 | z2 ([B,D]2 [A,C]2) | x6 | x6 | x6 | x6 | x6 | x6 | %26
 x6 | x6 | x6 | x6 | x6 | x4 D2 | E2 z4 | F4 E2 | x6 | x6 | x6 | x6 | z2 z2 z2 | %39
 [B,D]2 !>![CEA]2 [A,DF]2 | x6 | z2 e2 d2 | x6 | x6 |] %44
V:4
 x6 | [E,,B,,]2 [C,,A,,]4 | z4 A,F, | z2 G,2 =A,2 | F,2 G,2 A,F, | G,2 B,2 C2 | =A,2 =B,2 C_B, | %7
 =A,G, F,3 G, | G,B, =A,2 _A,F, | [E,,B,,]2 [C,,A,,]4 | z4 A,F, | z2 G,2 =A,2 | F,2 G,2 A,F, | %13
 G,2 B,2 C2 | A,2 B,2 CB, | x6 | x6 | x6 | x6 | x6 | x6 | z4 A,2 | x6 | x6 | x6 | x6 | x6 | x6 | %28
 z6 | z2 z4 | x2 G,2 =A,2 | F,2 G,2 A,F, | G,2 B,2 C2 | A,2 B,2 z z | x6 | x6 | x6 | x6 | x6 | x6 | %40
 z6 | z6 | x6 | x6 |] %44
V:5
 x6 | x6 | x6 | x6 | d2 z4 | x6 | f2 z4 | x6 | x6 | x6 | x6 | x6 | d2 z4 | x6 | f2 z4 | x6 | x6 | %17
 x6 | x6 | x6 | x6 | x6 | x6 | x6 | x6 | x6 | x6 | x6 | x6 | x6 | x6 | x6 | x6 | f2 z4 | x6 | x6 | %36
 x6 | x6 | x6 | x6 | x6 | x6 | x6 | x6 |] %44
V:6
 x6 | x6 | x6 | x6 | x6 | x6 | x6 | x6 | F,4 z2 | x6 | x6 | x6 | x6 | x6 | x6 | x6 | x6 | x6 | x6 | %19
 x6 | x6 | x6 | x6 | x6 | x6 | x6 | x6 | x6 | x6 | x6 | x6 | x6 | x6 | x6 | x6 | x6 | x6 | x6 | %38
 x6 | x6 | x6 | x6 | x6 | x6 |] %44

